X:1
T:Andante con  moto (Quatuor)
T:Nr. 19 from Pièces choisis pour orgue
T:A.P.F. Boëly
%%score ( 1 2 ) { ( 3 6 ) | ( 4 7 8 ) | 5 }
L:1/8
Q:1/4=135
M:2/4
K:Bb
V:1 treble nm="Oboe" snm="Ob."
V:2 treble 
V:3 treble nm="Organ" snm="Org."
V:6 treble 
V:4 treble 
V:7 treble 
V:8 treble 
V:5 bass 
V:1
 D | B2 AG | ^F2 GA | B2 AG | e2 dc | BcBA | GAGA- | A A2 A | A2 z D | B2 AG | ^F2 GA | B2 AG | %12
 g2 fe | dedc | BcBc- | c c2 c | c2 x2 | z4 | z4 | z4 | z4 | z4 | z4 | z4 | z4 | z4 | z4 | z4 | %28
 z4 | z4 | z4 | z4 | z4 | z4 | z4 | z4 | z4 | z4 | z4 | z4 | z4 | z4 | z3 F | d2 cB | A2 Bc | %45
 d2 cB | g2 fe | dedc | =BcB x | z4 | z4 | z4 | z4 | z4 | z4 | z4 | z4 | z4 | z3 d/c/ | B2 AG | %60
 ^F2 GA | B2 AG | e2 dc | BcBA | GAGA- | A A2 A | A2 z2 |[K:G] z4 | z4 | z4 | z4 | z4 | z4 | z4 | %74
 z4 | z4 | z4 | z4 | z4 | z4 | z4 | z4 | z4 | z4 | z4 |[K:Bb] z4 | z4 | z4 | z4 | z4 | B2 AG | %91
 ^F2 GA | B2 AG | e2 dc | BcBA | GAGA- | A A2 A | A2 z2 | z4 | z4 | z4 | z4 | z4 | z4 | z4 | z4 | %106
 z4 | z4 | z4 | z4 | z4 | z4 | z4 | z4 | z4 | z4 |] %116
V:2
 x | x4 | x4 | x4 | x4 | x4 | x4 | x4 | x4 | x4 | x4 | x4 | x4 | x4 | x4 | x4 | x4 | x4 | x4 | x4 | %20
 x4 | x4 | x4 | x4 | x4 | x4 | x4 | x4 | x4 | x4 | x4 | x4 | x4 | x4 | x4 | x4 | x4 | x4 | x4 | %39
 x4 | x4 | x4 | x4 | x4 | x4 | x4 | x4 | x4 | z3 G, | E2 D C | =B,2 C D | E2 D C | _A2 G F | %53
 E F E D | ^C D C =E | x4 | x4 | x4 | x4 | x4 | x4 | x4 | x4 | x4 | x4 | x4 | x4 |[K:G] x4 | x4 | %69
 x4 | x4 | x4 | x4 | x4 | x4 | x4 | x4 | x4 | x4 | x4 | x4 | x4 | x4 | x4 | x4 |[K:Bb] x4 | x4 | %87
 x4 | x4 | x4 | x4 | x4 | x4 | x4 | x4 | x4 | x4 | x4 | x4 | x4 | x4 | x4 | x4 | x4 | x4 | x4 | %106
 x4 | x4 | x4 | x4 | x4 | x4 | x4 | x4 | x4 | x4 |] %116
V:3
 D | B2 AG | ^F2 GA | B2 AG | e2 dc | BcBA | GAGA- | A A2 A | A2 z D | B2 AG | ^F2 GA | B2 AG | %12
 g2 fe | dedc | BcBc- | c c2 c | c2 z F | f2 e/d/c/B/ | A/B/c/d/ e2 | d/c/d/e/ f2 | %20
 A/B/c/d/ e/c/B/A/ | BB cd | e2 d/c/B/A/ | B2 A/B/c/d/ | e/d/c/B/ A/c/d/e/ | d/c/d/e/ f/d/b/g/ | %26
 f/d/b/g/ f/d/b/g/ | f2 z b/a/ | gfed | ^f>g =f/e/d/c/ | c B2 A | f [bd']/[ac']/ [gb][fa] | %32
 [eg][df][ce][Bd] | ^f a/g/ =f/e/d/c/ | c/B/B/d/ f/g/=e/g/ | f/g/=e/g/ f/g/e/g/ | %36
 f/ B/c/d/ e/f/g/a/ | b/ [Bd]/[ce]/[df]/ [eg]/[fa]/[gb]/[ac']/ | [bd'] [bd']2 [bd'-] | %39
 [bd'] [bd']2 [bd'-] | [bd'] [bd']2 [bd'] | [bd']2 z2 | [ea]2 z F | d2 cB | A2 Bc | d2 cB | g2 fe | %47
 dedc | =BcBd | G cde | z fed | z cde | z ded | c=Bcd | =ede^c | z A2 A | z A2 A | z A2 B/A/ | %58
 A d2 d/c/ | B2 AG | ^F2 GA | B2 AG | e2 dc | BcBA | GAGA- | A A2 A | A2 z D |[K:G] d2 c/B/A/G/ | %68
 F/G/A/B/ c2 | B/A/B/c/ d2 | F/G/A/B/ c/A/G/F/ | GG AB | c2 B/A/G/F/ | G2 F/G/A/B/ | %74
 c/B/A/G/ F/A/B/c/ | B/A/B/c/ d/B/g/e/ | d/B/g/e/ d/B/g/e/ | d2 z g/f/ | edcB | ^d>e =d/c/B/A/ | %80
 A G2 F | d [gb]/[fa]/ [eg][df] | [ce][Bd][Ac][GB] | ^df/e/ =d/c/B/A/ | A _B2 G | %85
[K:Bb] ^F/D/F/A/ d/=e/^c/e/ | d/^F/A/d/ ^f/g/=e/g/ | ^f/A/d/f/ a/b/g/b/ | %88
 [^fa]/[gb]/[ac']/[bd']/ [ac']/[bd']/[ac']/[gb]/ | [^fa]/[gb]/[fa]/[eg]/ [df]/[ce]/[Bd]/[Ac]/ | %90
 B2 AG | ^F2 GA | B2 AG | e2 dc | BcBA | GAGA- | A A2 A | A2 z d- | d d2 d | d [=Bd][ce][df] | %100
 [eg][df][ce][Bd] | [Ac][Ac][Bd][ce] | [df][ce][Bd][Ac] | Be Ad | G c2 B | Ae d^F | %106
 G/G,/B,/D/ G/A/^F/A/ | G/B,/D/G/ B/c/A/c/ | B/D/G/B/ d/e/c/e/ | d/G/B/d/ g/a/^f/a/ | %110
 g/a/^f/a/ g/b/a/c'/ | b/d'/b/^f/ g/d/B/G/ | e2 d2 | b/d'/b/^f/ g/d/B/G/ |"^rit." e2 ^F2 | %115
 !fermata!G2 z2 |] %116
V:4
 z | z [G,B,][A,C][B,D] | z [CE][B,D][A,C] | z [G,B,][A,C][B,D] | z [Cc][DB][EA] | %5
 [DG][EA] [DG][C^F] | [B,G][C^F] [B,G][G,^C] | [^F,D][G,^C] [F,D][G,C] | [^F,D]2 z2 | %9
 z [G,B,][A,C][B,D] | z [CE][B,D][A,C] | z [G,B,][A,C][B,D] | z [Ee][Fd][Fc] | [FB][F-c] [FB][EA] | %14
 [DG][EA] [DG][B,=E] | [A,F][B,=E] [A,F][B,E] | [A,F]2 z2 |[K:bass] z B,CD | E2 D/C/B,/A,/ | %19
 B,2 A,/B,/C/D/ | E2 z F, | F2 E/D/C/B,/ | A,/B,/C/D/ E2 | D/C/D/E/ F2 | A,/B,/C/D/ E/C/B,/A,/ | %25
 B,/A,/B,/C/ DE,/G,/ | B,E,/G,/ B,E,/G,/ | B,2 z2 | z [DF][EG][F_A] | z [CG] z [CG] | %30
 z [DF] z [CF] | [B,F]2 z C,/D,/ | E,F,G,_A, |[K:treble] x4 | x4 | x4 | x4 | z4 | %38
 z/ F,/G,/A,/ B,/C/D/E/ | F/^C/D/B,/ G,/B,/F,/B,/ | =E,/B,/F,/B,/ G,/B,/E,/A,/ | %41
 F, G,/A,/ B,/C/D/E/ | =E/F/G/F/ F/_E/D/C/ | z [B,D][CE][DF] | z [E_G][DF][CE] | z [B,D][CE][DF] | %46
 z [Ee][Fd][Fc] | [FB][F-c] [FB][CF-] | [DF][CF-] [DF] x | x4 | x4 | x4 | x4 | x4 | x4 | %55
 z [A,A][^CG][DF] | z [=EG][DF][^CE] | z [A,A][^CG][DF] | F^FGA | z [G,B,][A,C][B,D] | %60
 z [CE][B,D][A,C] | z [G,B,][A,C][B,D] | z [Cc][DB][EA] | [DG][EA] [DG][C^F] | %64
 [B,G][C^F] [B,G][G,^C] | [^F,D][G,^C] [F,D][G,C] | [^F,D]2 z2 |[K:G][K:bass] D4- | D4- | D4- | %70
 D4- | D4- | D4- | D4- | D4- | D2 x2 | x4 | x4 | x4 | x4 | x4 | x4 | x4 | z E2 E | z E2 E | %85
[K:Bb][K:treble] DD^FG | ^FFAB | AA^f=e | x4 | z4 | z [G,B,][A,C][B,D] | z [CE][B,D][A,C] | %92
 z [G,B,][A,C][B,D] | z [Cc][DB][EA] | [DG][EA] [DG][C^F] | [B,G][C^F] [B,G][G,^C] | %96
 [^F,D][G,^C] [F,D][G,C] | [^F,D]2 z [C^F] | [=B,G][C^F] [B,G][CF] | [=B,G]G/F/ ED | z C/D/ E=E | %101
 z F/E/ DC | z B,/C/ DC/D/ | EC D=B, | CA,/G,/ ^F,G, |[K:bass] C,2 D,2 | z D,2 E, | D, G,2 ^F, | %108
 G, B,2 A, | B, D2 E | DED^F | G2 z2 | C2 A,2 | G,2 z2 | A,2 C2 | !fermata!B,2 z2 |] %116
V:5
 z | G,2 z2 | D,2 z2 | G,2 z2 | ^F,2 z2 | G,^F, G,D, | E,D, E,2 | D,A,, D,A,, | D,C,B,,A,, | %9
 G,,2 z2 | D,2 z2 | G,2 z2 | A,2 z2 | B,A, B,^F, | G,^F, G,2 | F,C, F,C, | F,E,D,C, | B,,4- | %18
 B,,4- | B,,4- | B,,4- | B,,4- | B,,4- | B,,4- | B,,4- | B,,2 z B, | B,,B, B,,B, | B,,2 z2 | %28
 D,2 z2 | E,2 E,2 | F,2 E,2 | D,2 z A,,/B,,/ | C,D,E,F, | E,4 | F,4- | F,4- | F,2 z2 | z4 | z4 | %39
 z B,, E,F, | G,F, =E,G, | F,2 z2 | F,,2 z2 | B,,2 z2 | F,2 z2 | B,2 z2 | A,2 z2 | B,A, B,_A, | %48
 G,_A, G,=B,, | C,2 z2 | G,2 z2 | C2 z2 | =B,2 z2 | C3 B, | A,B,A, A,, | F,2 =E,D, | ^C,2 D,=E, | %57
 F,2 =E,D, | D,4 | G,2 z2 | D,2 z2 | G,2 z2 | ^F,2 z2 | G,^F, G,D, | E,D, E,2 | D,A,, D,A,, | %66
 D,C,=B,,A,, |[K:G] G,,4- | G,,4- | G,,4- | G,,4- | G,,4- | G,,4- | G,,4- | G,,4 | G,,2 z G, | %76
 G,,G, G,,G, | G,,2 z2 | B,,2 z2 | C,2 C,2 | D,2 C,2 | B,,2 z F,,/G,,/ | A,,B,,C,D, | C,4 | ^C,4 | %85
[K:Bb] D,4- | D,4- | D,4- | D,2 z2 | z4 | G,2 z2 | D,2 z2 | G,2 z2 | ^F,2 z2 | G,^F, G,D, | %95
 E,D, E,2 | D,A,, D,A,, | D,2 z D, | G,D, G,D, | G,2 z2 | C,2 z2 | F,2 z2 | B,,2 z2 | z4 | z4 | %105
 z4 | G,,4- | G,,4- | G,,4- | G,,4- | G,,4- | G,,2 z2 | C,2 D,2 | G,2 z2 | C,2 D,2 | %115
 !fermata!G,,2 z2 |] %116
V:6
 x | x4 | x4 | x4 | x4 | x4 | x4 | x4 | x4 | x4 | x4 | x4 | x4 | x4 | x4 | x4 | x4 | %17
[I:staff +1] F4- | F4- | F4- | F4- | F4- | F4- | F4- | F4- | F2[I:staff -1] z e | de de | d2 z2 | %28
 x4 | x4 | x4 | x4 | x4 | x4 | x4 | x4 | x4 | x4 | x4 | x4 | x4 | x2 z2 | x2 z2 | x4 | x4 | x4 | %46
 x4 | x4 | z3 F | EG=Bc | z _AGF | z EFG | z FG_A | G G2 G | G4 | x4 | x4 | x4 | x4 | x4 | x4 | %61
 x4 | x4 | x4 | x4 | x4 | x4 |[K:G] x4 | x4 | x4 | x4 | x4 | x4 | x4 | x4 | x3 c | Bc Bc | B2 x2 | %78
 x4 | x4 | x4 | x4 | x4 | x4 | x4 |[K:Bb] x4 | x4 | x4 | x4 | x4 | x4 | x4 | x4 | x4 | x4 | x4 | %96
 x4 | x4 | x4 | x4 | x4 | x4 | x4 | GA/G/ ^FG/=F/ | =E_E D2 | Ec BC | B,G, B,C | B,B, DE | DD G^F | %109
 GG Bc | Bc Bd | d2 z2 | G2 ^F2 | d2 z2 | G2 D2 | D2 z2 |] %116
V:7
 x | x4 | x4 | x4 | x4 | x4 | x4 | x4 | x4 | x4 | x4 | x4 | x4 | x4 | x4 | x4 | x4 |[K:bass] x4 | %18
 x4 | x4 | x4 | x4 | x4 | x4 | x4 | x4 | x4 | x4 | x4 | x4 | x4 | x4 | x4 |[K:treble] x G2 G | %34
 F B2 B- | B B2 B | B2 x2 | x4 | x4 | x4 | x4 | x4 | x4 | x4 | x4 | x4 | x4 | x4 | x3 G, | E2 DC | %50
 =B,2 CD | E2 DC | _A2 GF | EFED | ^CDC=E | x4 | x4 | x4 | D>^CB,A, | x4 | x4 | x4 | x4 | x4 | x4 | %65
 x4 | x4 |[K:G][K:bass] z G,A,B, | C2 B,/A,/G,/F,/ | G,2 F,/G,/A,/B,/ | C2 z D, | D2 C/B,/A,/G,/ | %72
 F,/G,/A,/B,/ C2 | B,/A,/B,/C/ D2 | F,/G,/A,/B,/ C/A,/G,/F,/ | G,/F,/G,/A,/ B,C,/E,/ | %76
 G,C,/E,/ G,C,/E,/ | G,2 z2 | z [B,D][CE][D=F] | z [EG] z [EG] | z [B,D] z [A,D] | %81
 [G,D]2 z A,,/B,,/ | C,D,E,=F, | z A,B,C | z G,A,_B, |[K:Bb][K:treble] A, A,2 B, | A, D2 ^C | %87
 D D2 D | D2 z2 | x4 | x4 | x4 | x4 | x4 | x4 | x4 | x4 | x4 | x4 | x4 | x4 | x4 | x4 | x4 | x4 | %105
[K:bass] x4 | x4 | x4 | x4 | x4 | x4 | x4 | x4 | x4 | x4 | x4 |] %116
V:8
 x | x4 | x4 | x4 | x4 | x4 | x4 | x4 | x4 | x4 | x4 | x4 | x4 | x4 | x4 | x4 | x4 |[K:bass] x4 | %18
 x4 | x4 | x4 | x4 | x4 | x4 | x4 | x4 | x4 | x4 | x4 | x4 | x4 | x4 | x4 |[K:treble] z CDE | %34
 D D2 ^C | D^CDC | D2 z2 | x4 | x4 | x4 | x4 | x4 | x4 | x4 | x4 | x4 | x4 | x4 | x4 | x4 | x4 | %51
 x4 | x4 | x4 | x4 | x4 | x4 | x4 | x4 | x4 | x4 | x4 | x4 | x4 | x4 | x4 | x4 |[K:G][K:bass] x4 | %68
 x4 | x4 | x4 | x4 | x4 | x4 | x4 | x4 | x4 | x4 | x4 | x4 | x4 | x4 | x4 | x4 | x4 | %85
[K:Bb][K:treble] x4 | x4 | x4 | x4 | x4 | x4 | x4 | x4 | x4 | x4 | x4 | x4 | x4 | x4 | x4 | x4 | %101
 x4 | x4 | x4 | x4 |[K:bass] x4 | x4 | x4 | x4 | x4 | x4 | x4 | x4 | x4 | x4 | x4 |] %116

